src/svg/bug.svg

<svg height="1000" width="1000.0" xmlns="http://www.w3.org/2000/svg">
    <path d="m1000 564.3c-1 34-29.7 60.7-63.8 60.7h-108.1v31.2c0 42.8-9.5 83.2-26.5 119.5l117.6 117.6c24.4 24.4 24.4 64 0 88.4-24.4 24.4-64 24.4-88.4 0l-106.9-106.9c-48.3 39.2-109.9 62.7-177 62.7v-476.6c0-12.9-10.5-23.4-23.5-23.4h-46.8c-13 0-23.5 10.5-23.5 23.4v476.6c-67.1 0-128.7-23.5-177-62.7l-106.9 106.9c-24.4 24.4-64 24.4-88.4 0-24.4-24.4-24.4-64 0-88.4l117.6-117.6c-17-36.3-26.5-76.7-26.5-119.5v-31.2h-108.1c-34.1 0-62.8-26.7-63.8-60.7-0.9-35.4 27.4-64.3 62.5-64.3h109.4v-114.7l-91.1-91.1c-24.4-24.4-24.4-64 0-88.4 24.4-24.4 64-24.4 88.4 0l106.7 106.7h448.2l106.7-106.7c24.4-24.4 64-24.4 88.4 0 24.4 24.4 24.4 64 0 88.4l-91.1 91.1v114.7h109.4c35.1 0 63.4 28.9 62.5 64.3z m-498-564.3c120.8 0 218.7 97.9 218.7 218.8h-437.5c0-120.9 97.9-218.8 218.8-218.8z" />
  </svg>

<svg height="1000" width="1000" xmlns="http://www.w3.org/2000/svg"><path d="M1000 564.3c-1 34 -29.7 60.7 -63.8 60.7H828.1v31.3c0 42.7 -9.5 83.1 -26.5 119.4l117.6 117.6c24.4 24.4 24.4 64 0 88.4 -24.4 24.4 -64 24.4 -88.4 0L723.9 874.8C675.6 914 614 937.5 546.9 937.5V460.9c0 -12.9 -10.5 -23.4 -23.5 -23.4h-46.8c-13 0 -23.5 10.5 -23.5 23.4v476.6c-67.1 0 -128.7 -23.5 -177 -62.7L169.2 981.7c-24.4 24.4 -64 24.4 -88.4 0 -24.4 -24.4 -24.4 -64 0 -88.4L198.4 775.7C181.4 739.4 171.9 699 171.9 656.3V625H63.8C29.7 625 1 598.3 0 564.3 -.9 528.9 27.4 500 62.5 500h109.4V385.3L80.8 294.2c-24.4 -24.4 -24.4 -64 0 -88.4 24.4 -24.4 64 -24.4 88.4 0l106.7 106.7h448.2L830.8 205.8c24.4 -24.4 64 -24.4 88.4 0 24.4 24.4 24.4 64 0 88.4l-91.1 91.1V500h109.4c35.1 0 63.4 28.9 62.5 64.3zM502 0C381.1 0 283.2 97.9 283.2 218.8h437.5C720.7 97.9 622.8 0 502 0z"/></svg>
